static/assets/img/icons/theme/communication/address-card.svg

<svg height="24" viewBox="0 0 24 24" width="24" xmlns="http://www.w3.org/2000/svg"><g fill="none" fill-rule="evenodd"><path d="m0 0h24v24h-24z" opacity="0"/><path d="m6 2h12c1.6568542 0 3 1.34314575 3 3v14c0 1.6568542-1.3431458 3-3 3h-12c-1.65685425 0-3-1.3431458-3-3v-14c0-1.65685425 1.34314575-3 3-3zm6 9c1.1045695 0 2-.8954305 2-2s-.8954305-2-2-2-2 .8954305-2 2 .8954305 2 2 2zm-4.99963795 5.4995035c-.01172969.162484.26447804.5004965.40380585.5004965h9.1773321c.4173413 0 .4238266-.3778287.4173413-.5-.1627948-3.0667545-2.3481655-4.5-5.0080961-4.5-2.62301612 0-4.77504602 1.5165724-4.99038315 4.4995035z" fill="#000"/></g></svg>

<svg width="24px" height="24px" viewBox="0 0 24 24" version="1.1" xmlns="http://www.w3.org/2000/svg" xmlns:xlink="http://www.w3.org/1999/xlink">
    <title>Icon For Address-card</title>
    <g stroke="none" stroke-width="1" fill="none" fill-rule="evenodd">
        <rect opacity="0" x="0" y="0" width="24" height="24"></rect>
        <path d="M6,2 L18,2 C19.6568542,2 21,3.34314575 21,5 L21,19 C21,20.6568542 19.6568542,22 18,22 L6,22 C4.34314575,22 3,20.6568542 3,19 L3,5 C3,3.34314575 4.34314575,2 6,2 Z M12,11 C13.1045695,11 14,10.1045695 14,9 C14,7.8954305 13.1045695,7 12,7 C10.8954305,7 10,7.8954305 10,9 C10,10.1045695 10.8954305,11 12,11 Z M7.00036205,16.4995035 C6.98863236,16.6619875 7.26484009,17 7.4041679,17 C11.463736,17 14.5228466,17 16.5815,17 C16.9988413,17 17.0053266,16.6221713 16.9988413,16.5 C16.8360465,13.4332455 14.6506758,12 11.9907452,12 C9.36772908,12 7.21569918,13.5165724 7.00036205,16.4995035 Z" fill="#000000"></path>
    </g>
</svg>
